X: 1
T: Madame Bonaparte
R: hornpipe
M: 4/4
L: 1/8
K: Gmaj
|:dc|B2BA BdBG|c2cB cecA|GBdf gfge|d3e dcBA|
B2BA BdBG|cBcd efge|dBGB cAFA|G2GF G2:|
|:BA|GBdf gfge|d3e dcBA|GBdf gfge|d3e dcBA|
BdGd BdGd|ceAe ceAe|BdGd BdGd|FADA FADA|
BdGd BdGd|cBcd efge|dBGB cAFA|G2GF G2:|


Tune 2344	Setting 15711

